kiirlaen.svg

<?xml version="1.0" encoding="UTF-8"?>
<svg width="170px" height="60px" viewBox="0 0 170 60" version="1.1" xmlns="http://www.w3.org/2000/svg" xmlns:xlink="http://www.w3.org/1999/xlink">
    <!-- Generator: Sketch 59.1 (86144) - https://sketch.com -->
    <title>Partner</title>
    <desc>Created with Sketch.</desc>
    <defs>
        <path d="M9.84210526,0 L160.157895,0 C165.593539,0 170,4.22131522 170,9.42857143 L170,50.5714286 C170,55.7786848 165.593539,60 160.157895,60 L9.84210526,60 C4.40646062,60 0,55.7786848 0,50.5714286 L0,9.42857143 C0,4.22131522 4.40646062,0 9.84210526,0 Z" id="path-1"></path>
    </defs>
    <g id="Banner" stroke="none" stroke-width="1" fill="none" fill-rule="evenodd">
        <g id="Artboard" transform="translate(-16.000000, -18.000000)">
            <g id="Partner" transform="translate(16.000000, 18.000000)">
                <mask id="mask-2" fill="white">
                    <use xlink:href="#path-1"></use>
                </mask>
                <use id="Mask" fill="#FFD7D7" xlink:href="#path-1"></use>
                <g id="BG-group" mask="url(#mask-2)">
                    <g transform="translate(-16.000000, -14.000000)" id="bg">
                        <g>
                            <polygon id="Path" fill="#0052FF" fill-rule="nonzero" points="6 0 206 0 206 90 6 90"></polygon>
                            <path d="M206,66 C156,66 156,30.9032258 106,30.9032258 C56,30.9032258 55.6227586,66 6,66 M206,37.0967742 C156,37.0967742 156,2 106,2 C56,2 55.6227586,37.0967742 6,37.0967742" id="Shape" stroke="#034DEF" stroke-width="12"></path>
                            <path d="M200,126 C150,126 150,90.9032258 100,90.9032258 C50,90.9032258 49.6227586,126 0,126 M200,97.0967742 C150,97.0967742 150,62 100,62 C50,62 49.6227586,97.0967742 0,97.0967742" id="Shape" stroke="#034DEF" stroke-width="12"></path>
                        </g>
                    </g>
                </g>
                <g id="kiirlaen-logo" mask="url(#mask-2)" fill="#FFFFFF">
                    <g transform="translate(8.000000, 7.000000)" id="Shape">
                        <path d="M23,0 C35.7019165,0.00152749884 45.9984725,10.2980835 46,23 C45.9984725,35.7019165 35.7019165,45.9984725 23,46 C10.2980835,45.9984725 0.00152749884,35.7019165 0,23 C0.00152749884,10.2980835 10.2980835,0.00152749884 23,0 Z M24.8037046,7.31717585 C24.9904378,7.12076016 25.2975102,7.07511427 25.5368054,7.22450084 C25.7401371,7.35175607 25.845261,7.58966803 25.8023815,7.82481357 L23.5408347,20.2460308 L31.3988453,20.2460308 L31.5039692,20.2557133 C31.7764614,20.3055088 31.9825595,20.5434207 31.9825595,20.8311282 C31.9825595,20.9417849 31.9521289,21.048292 31.8940342,21.140967 L21.0980876,38.4144816 L21.0261607,38.5085398 C20.8394275,38.7049555 20.5323551,38.7506014 20.2930599,38.6012148 C20.0897282,38.4739596 19.9846043,38.2360476 20.0274838,38.0009021 L22.2876473,25.5796849 L14.43102,25.5810681 L14.3258961,25.5713856 C14.0534039,25.5215901 13.8473057,25.2836781 13.8473057,24.9959707 C13.8473057,24.8853139 13.8777363,24.7788068 13.9358311,24.6861318 L24.7317777,7.41400048 L24.8037046,7.31717585 Z"></path>
                    </g>
                </g>
                <path d="M67.1232,22.8592 C66.2016,23.2336 66,23.5792 66,24.5008 L66,42.8176 C66,43.48 66.2304,43.7104 66.8928,43.7104 L68.4768,43.7104 C69.1392,43.7104 69.3408,43.48 69.3408,42.8176 L69.3408,37.288 C70.6656,37.6336 71.6736,37.8064 72.3648,37.8064 C76.656,37.8064 78.7872,35.7904 78.7872,31.7872 L78.7872,27.8416 C78.7872,24.0688 76.7712,22.024 72.7104,22.024 C70.4928,22.024 68.6496,22.312 67.1232,22.8592 Z M75.4464,31.672 C75.4464,33.7168 74.352,34.7536 72.1344,34.7536 C71.3856,34.7536 70.464,34.6096 69.3408,34.3216 L69.3408,25.768 C69.3408,25.5952 69.4272,25.48 69.6288,25.3936 C70.3776,25.192 71.2416,25.0768 72.2208,25.0768 C74.3808,25.0768 75.4464,26.0272 75.4464,27.928 L75.4464,31.672 Z M81.588,25.0192 C81.2712,25.5952 81.444,26.0272 82.0776,26.3152 L83.2296,26.8048 C83.892,27.0352 84.036,26.9776 84.468,26.3728 C85.0728,25.4512 86.0808,24.9904 87.492,24.9904 C89.5656,24.9904 90.372,25.9696 90.372,27.8416 L90.372,28.648 L87.7565452,28.5081947 C87.6888133,28.505436 87.6390316,28.504 87.6072,28.504 C82.9128,28.504 81.0696,29.7136 81.0696,33.1408 C81.0696,34.7248 81.5304,35.9056 82.452,36.6544 C83.3736,37.432 85.044,37.8064 87.492,37.8064 C89.796,37.8064 91.524,37.5472 92.676,37.0576 C93.4824,36.712 93.7128,36.424 93.7128,35.416 L93.7128,27.9568 C93.7128,24.0112 91.668,22.024 87.5496,22.024 C84.612,22.024 82.6248,23.032 81.588,25.0192 Z M90.372,34.408 C90.372,34.6096 90.2568,34.7248 90.0552,34.8112 C89.364,34.9552 88.4136,35.0416 87.1752,35.0416 C85.0728,35.0416 84.468,34.408 84.468,33.112 C84.468,31.8884966 85.1123529,31.282498 87.0231926,31.2421598 L87.3098063,31.2426437 C87.5937,31.25485 88.608,31.3084 90.372,31.384 L90.372,34.408 Z M103.3968,22.024 C101.2368,22.0816 99.4512,22.3696 98.04,22.888 C97.1184,23.2624 96.9168,23.608 96.9168,24.5296 L96.9168,36.4816 C96.9168,37.144 97.1472,37.3744 97.8096,37.3744 L99.3936,37.3744 C100.056,37.3744 100.2576,37.144 100.2576,36.4816 L100.2576,25.768 C100.2576,25.5664 100.344,25.4512 100.5456,25.4224 C101.2944,25.192 102.216,25.0768 103.2816,25.0768 L104.3184,25.0768 C104.9808,25.0768 105.2112,24.8464 105.2112,24.184 L105.2112,22.9168 C105.2112,22.2256 104.9808,22.024 104.3184,22.024 L103.3968,22.024 Z M109.6248,19 C108.9624,19 108.732,19.2016 108.732,19.864 L108.732,22.456 L106.7448,22.456 C106.0824,22.456 105.8808,22.6576 105.8808,23.32 L105.8808,24.6448 C105.8808,25.3072 106.0824,25.5376 106.7448,25.5376 L108.732,25.5376 L108.732,31.4416 C108.732,33.8896 109.2216,35.5888 110.2296,36.5104 C111.2088,37.432 112.908,37.864 115.3272,37.7776 C116.0184,37.7488 116.2488,37.5472 116.2488,36.856 L116.2488,35.5312 C116.2488,34.8832 116.0463,34.6655125 115.451456,34.6408328 L115.3272,34.6384 C114.06,34.6384 113.196,34.4368 112.764,34.0048 C112.3032,33.5728 112.0728,32.68 112.0728,31.3264 L112.0728,25.5376 L115.356,25.5376 C116.0184,25.5376 116.2488,25.3072 116.2488,24.6448 L116.2488,23.32 C116.2488,22.6576 116.0184,22.456 115.356,22.456 L112.0728,22.456 L112.0728,19.864 C112.0728,19.2016 111.8424,19 111.18,19 L109.6248,19 Z M119.7408,23.0032 C118.8192,23.3776 118.6176,23.7232 118.6176,24.6448 L118.6176,36.4816 C118.6176,37.144 118.848,37.3744 119.5104,37.3744 L121.0944,37.3744 C121.7568,37.3744 121.9584,37.144 121.9584,36.4816 L121.9584,25.7392 C121.9584,25.5952 122.016,25.5088 122.16,25.4512 C123.0816,25.192 124.0032,25.0768 124.9248,25.0768 C127.0272,25.0768 128.064,26.0272 128.064,27.8992 L128.064,36.4816 C128.064,37.144 128.2656,37.3744 128.928,37.3744 L130.512,37.3744 C131.1744,37.3744 131.4048,37.144 131.4048,36.4816 L131.4048,27.8128 C131.4048,24.0976 129.4464,22.024 125.4144,22.024 C123.2544,22.024 121.3824,22.3408 119.7408,23.0032 Z M134.2632,31.6432 C134.2632,35.416 136.3944,37.8064 140.8872,37.8064 C143.9112,37.8064 145.9848,36.8848 147.108,35.0416 C147.54,34.3792 147.4248,33.9184 146.7624,33.6016 L145.7544,33.0544 C145.0632,32.68 144.7464,32.7376 144.2856,33.4 C143.6232,34.408 142.5,34.9264 140.8872,34.9264 C138.7848,34.9264 137.604,33.9184 137.604,32.0464 L137.604,30.9808 L146.3016,30.9808 C147.1656,30.9808 147.5976,30.5776 147.5976,29.7424 L147.5976,27.9856 C147.5976,24.5008 145.3224,22.024 140.9448,22.024 C136.596,22.024 134.2632,24.2128 134.2632,28.2448 L134.2632,31.6432 Z M144.2568,28.4176 L137.604,28.4176 L137.604,27.784 C137.604,25.912 138.7848,24.8464 140.9448,24.8464 C143.1336,24.8464 144.2568,25.912 144.2568,27.784 L144.2568,28.4176 Z M156.8496,22.024 L157.7712,22.024 C158.4336,22.024 158.664,22.2256 158.664,22.9168 L158.664,24.184 C158.664,24.8464 158.4336,25.0768 157.7712,25.0768 L156.7344,25.0768 C155.6688,25.0768 154.7472,25.192 153.9984,25.4224 C153.7968,25.4512 153.7104,25.5664 153.7104,25.768 L153.7104,36.4816 C153.7104,37.144 153.5088,37.3744 152.8464,37.3744 L151.2624,37.3744 C150.6,37.3744 150.3696,37.144 150.3696,36.4816 L150.3696,24.5296 C150.3696,23.608 150.5712,23.2624 151.4928,22.888 C152.904,22.3696 154.6896,22.0816 156.8496,22.024 Z" id="partner" fill="#FFFFFF" fill-rule="nonzero" mask="url(#mask-2)"></path>
            </g>
        </g>
    </g>
</svg>

<svg xmlns="http://www.w3.org/2000/svg" xmlns:xlink="http://www.w3.org/1999/xlink" width="170" height="60"><defs><path d="M9.842 0h150.316C165.594 0 170 4.22 170 9.43V50.57c0 5.207-4.406 9.43-9.842 9.43H9.842C4.406 60 0 55.78 0 50.57V9.43C0 4.22 4.406 0 9.842 0z" id="A"/></defs><g fill="none" fill-rule="evenodd"><mask id="B" fill="#fff"><use xlink:href="#A"/></mask><use fill="#ffd7d7" xlink:href="#A"/><g mask="url(#B)"><path fill="#0052ff" fill-rule="nonzero" d="M-10-22h200V7H-10z"/><path d="M190 28C140 28 140-7.097 90-7.097S39.623 28-10 28M190-.903C140-.903 140-36 90-36S39.623-.903-10-.903" stroke="#004df3" stroke-width="12"/><path fill="#0052ff" fill-rule="nonzero" d="M-10 7h200v29H-10z"/><path d="M190 57c-50 0-50-35.097-100-35.097S39.623 57-10 57m200-28.903C140 28.097 140-7 90-7S39.623 28.097-10 28.097" stroke="#004df3" stroke-width="12"/><path fill="#0052ff" fill-rule="nonzero" d="M-10 36h200v29H-10z"/><path d="M190 86c-50 0-50-35.097-100-35.097S39.623 86-10 86m200-28.903C140 57.097 140 22 90 22S39.623 57.097-10 57.097" stroke="#004df3" stroke-width="12"/></g><g fill="#fff"><g mask="url(#B)"><path d="M31 7c12.702.002 22.998 10.298 23 23S43.702 52.998 31 53 8.002 42.702 8 30 18.298 7.002 31 7zm1.804 7.317c.187-.196.494-.242.733-.093.203.127.308.365.266.6l-2.262 12.42H39.4l.105.01c.272.05.48.288.48.575a.58.58 0 0 1-.089.31L29.098 45.414l-.072.094c-.187.196-.494.242-.733.093-.203-.127-.308-.365-.266-.6l2.26-12.42H22.43l-.105-.01c-.272-.05-.48-.288-.48-.575a.58.58 0 0 1 .089-.31l10.868-17.37z"/></g><path d="M67.123 22.86c-.922.374-1.123.72-1.123 1.642v18.317c0 .662.23.893.893.893h1.584c.662 0 .864-.23.864-.893v-5.53c1.325.346 2.333.518 3.024.518 4.29 0 6.422-2.016 6.422-6.02v-3.946c0-3.773-2.016-5.818-6.077-5.818-2.218 0-4.06.288-5.587.835zm8.323 8.813c0 2.045-1.094 3.082-3.312 3.082-.75 0-1.67-.144-2.794-.432v-8.554c0-.173.086-.288.288-.374.75-.202 1.613-.317 2.592-.317 2.16 0 3.226.95 3.226 2.85v3.744zm6.142-6.653c-.317.576-.144 1.008.5 1.296l1.152.5c.662.23.806.173 1.238-.432C85.073 25.45 86.08 25 87.492 25c2.074 0 2.88.98 2.88 2.85v.806l-2.615-.14-.15-.004c-4.694 0-6.538 1.2-6.538 4.637 0 1.584.46 2.765 1.382 3.514.922.778 2.592 1.152 5.04 1.152 2.304 0 4.032-.26 5.184-.75.806-.346 1.037-.634 1.037-1.642v-7.46c0-3.946-2.045-5.933-6.163-5.933-2.938 0-4.925 1.008-5.962 2.995zm8.784 9.39c0 .202-.115.317-.317.403-.69.144-1.642.23-2.88.23-2.102 0-2.707-.634-2.707-1.93 0-1.224.644-1.83 2.555-1.87h.287l3.062.14v3.024zm13.025-12.384c-2.16.058-3.946.346-5.357.864-.922.374-1.123.72-1.123 1.642v11.952c0 .662.23.893.893.893h1.584c.662 0 .864-.23.864-.893V25.768c0-.202.086-.317.288-.346.75-.23 1.67-.346 2.736-.346h1.037c.662 0 .893-.23.893-.893v-1.267c0-.69-.23-.893-.893-.893h-.922zM109.625 19c-.662 0-.893.202-.893.864v2.592h-1.987c-.662 0-.864.202-.864.864v1.325c0 .662.202.893.864.893h1.987v5.904c0 2.448.5 4.147 1.498 5.07.98.922 2.678 1.354 5.098 1.267.69-.03.922-.23.922-.922V35.53c0-.648-.203-.866-.797-.9l-.124-.002c-1.267 0-2.13-.202-2.563-.634-.46-.432-.69-1.325-.69-2.678v-5.79h3.283c.662 0 .893-.23.893-.893V23.32c0-.662-.23-.864-.893-.864h-3.283v-2.592c0-.662-.23-.864-.893-.864h-1.555zm10.116 4.003c-.922.374-1.123.72-1.123 1.642v11.837c0 .662.23.893.893.893h1.584c.662 0 .864-.23.864-.893V25.74c0-.144.058-.23.202-.288a10.15 10.15 0 0 1 2.765-.374c2.102 0 3.14.95 3.14 2.822v8.582c0 .662.202.893.864.893h1.584c.662 0 .893-.23.893-.893v-8.67c0-3.715-1.958-5.79-6-5.79-2.16 0-4.032.317-5.674.98zm14.522 8.64c0 3.773 2.13 6.163 6.624 6.163 3.024 0 5.098-.922 6.22-2.765.432-.662.317-1.123-.346-1.44l-1.008-.547c-.69-.374-1.008-.317-1.47.346-.662 1.008-1.786 1.526-3.398 1.526-2.102 0-3.283-1.008-3.283-2.88V30.98h8.698c.864 0 1.296-.403 1.296-1.238v-1.757c0-3.485-2.275-5.962-6.653-5.962-4.35 0-6.682 2.19-6.682 6.22v3.398zm9.994-3.226h-6.653v-.634c0-1.872 1.18-2.938 3.34-2.938 2.19 0 3.312 1.066 3.312 2.938v.634zm12.593-6.394h.922c.662 0 .893.202.893.893v1.267c0 .662-.23.893-.893.893h-1.037c-1.066 0-1.987.115-2.736.346-.202.03-.288.144-.288.346v10.714c0 .662-.202.893-.864.893h-1.584c-.662 0-.893-.23-.893-.893V24.53c0-.922.202-1.267 1.123-1.642 1.41-.518 3.197-.806 5.357-.864z" fill-rule="nonzero" mask="url(#B)"/></g></g></svg>
